web-components-icons/ea00-chart/SVG/bar-stacked100.svg

<?xml version="1.0" encoding="utf-8"?>
<!-- Generator: Adobe Illustrator 24.2.0, SVG Export Plug-In . SVG Version: 6.00 Build 0)  -->
<svg version="1.1" id="Layer_1" xmlns="http://www.w3.org/2000/svg" xmlns:xlink="http://www.w3.org/1999/xlink" x="0px" y="0px"
	 width="512px" height="512px" viewBox="0 0 512 512" xml:space="preserve">
<path d="M480,192V32H32v448h448v-32H64v-64h416V224H64v-32H480z M320,256v96H64v-96H320z M64,64h160v96H64V64z"/>
</svg>

<svg xmlns="http://www.w3.org/2000/svg" viewBox="0 0 512 512"><title>bar-stacked100</title><g id="bar_stacked_100" data-name="bar stacked 100"><path d="M480,192V32H32V480H480V448H64V384H480V224H64V192ZM320,256v96H64V256ZM64,64H224v96H64Z"/></g></svg>
